X:210
T:Retirement Party Reel
R:Reel
C:Bruce Osborne  --  Dec.4 1991
M:2/4
L:1/16
Z:abc by Bruce Osborne - bosborne@kos.net
K:A
E2|A2AB cBAE|F2A2 E2ED|CEAB cBAc|B2e2 e2E2|!
A2AB cBAE|F2A2 E2ED|CEAc BAGB|A2AG A2:|!
|:cd|ecAc ecAc|BAGB A2cd|ecAc ecAc|BcBA B2cd|!
ecAc ecAc|BAGB A2ED|CEAc BAGB|A2AG A2:|!
